X:18028
T:Radstock Jig
R:Jig
C:Trad.
O:England, Somerset
Z:Paul Hardy's Session Tunebook 2015 (see www.paulhardy.net). Creative Commons cc by-nc-sa licenced.
M:4/4
L:1/8
Q:1/4=180
K:Am
"C" c4 "Am" E3F|"G" G2G2 G4|"Am" A2AB "G" cBcd|"Am" e2e2 A4|
"Am" A2AB "G" cBcd||[K:Amix] "Am" e2ef g2fg|"Em" afdf egec|"Am"A2A2 A4||
"G" g2g2 "Em" gfed|"C" cdef "G" g2gf|"Am" e2a2 "Em" a3g|"Am" e2a2 a2ef|
"Em" g2ga gfed|cdef "G" g2fg|"D" afdf "C" egec|"Em" A2A>G "Am" A4|]

